src/icon/package-x-generic-symbolic.svg

<?xml version="1.0" encoding="UTF-8"?>
<svg height="16px" viewBox="0 0 16 16" width="16px" xmlns="http://www.w3.org/2000/svg">
    <g fill="#2e3434">
        <path d="m 4.027344 0.996094 c -1.660156 0 -3.027344 1.367187 -3.027344 3.027344 v 7.910156 c 0 1.660156 1.367188 3.027344 3.027344 3.027344 h 7.945312 c 1.660156 0 3.027344 -1.367188 3.027344 -3.027344 v -7.910156 c 0 -1.660157 -1.367188 -3.027344 -3.027344 -3.027344 z m 0 2 h 7.945312 c 0.585938 0 1.027344 0.441406 1.027344 1.027344 v 7.910156 c 0 0.585937 -0.441406 1.027344 -1.027344 1.027344 h -7.945312 c -0.589844 0 -1.027344 -0.441407 -1.027344 -1.027344 v -7.910156 c 0 -0.585938 0.4375 -1.027344 1.027344 -1.027344 z m 0 0"/>
        <path d="m 4.027344 1 c -1.660156 0 -3.027344 1.367188 -3.027344 3.027344 v 0.945312 s 1.386719 2.03125 3.027344 2.03125 h 7.945312 c 1.46875 0 3.027344 -2.03125 3.027344 -2.03125 v -0.945312 c 0 -1.660156 -1.367188 -3.027344 -3.027344 -3.027344 z m 0 2 h 7.945312 c 0.585938 0 1.027344 0.441406 1.027344 1.027344 v 0.945312 c 0 0.585938 -0.441406 1.027344 -1.027344 1.027344 h -7.945312 c -0.589844 0 -1.027344 -0.441406 -1.027344 -1.027344 v -0.945312 c 0 -0.585938 0.4375 -1.027344 1.027344 -1.027344 z m 0 0"/>
        <path d="m 7 0.996094 h 2 v 10.03125 l -2 -0.988282 z m 0 0"/>
    </g>
</svg>

<?xml version="1.0" encoding="UTF-8"?>
<svg xmlns="http://www.w3.org/2000/svg" xmlns:xlink="http://www.w3.org/1999/xlink" width="16px" height="16px" viewBox="0 0 16 16" version="1.1">
<g id="surface322534">
<path style=" stroke:none;fill-rule:nonzero;fill:rgb(18.039216%,20.392157%,20.392157%);fill-opacity:1;" d="M 4.023438 0.996094 C 2.363281 0.996094 0.996094 2.363281 0.996094 4.023438 L 0.996094 11.933594 C 0.996094 13.59375 2.363281 14.960938 4.023438 14.960938 L 11.972656 14.960938 C 13.632812 14.960938 15 13.59375 15 11.933594 L 15 4.023438 C 15 2.363281 13.632812 0.996094 11.972656 0.996094 Z M 4.023438 2.996094 L 11.972656 2.996094 C 12.558594 2.996094 13 3.4375 13 4.023438 L 13 11.933594 C 13 12.519531 12.558594 12.960938 11.972656 12.960938 L 4.023438 12.960938 C 3.4375 12.960938 2.996094 12.519531 2.996094 11.933594 L 2.996094 4.023438 C 2.996094 3.4375 3.4375 2.996094 4.023438 2.996094 Z M 4.023438 2.996094 "/>
<path style=" stroke:none;fill-rule:nonzero;fill:rgb(18.039216%,20.392157%,20.392157%);fill-opacity:1;" d="M 4.023438 1 C 2.363281 1 0.996094 2.367188 0.996094 4.027344 L 0.996094 4.972656 C 0.996094 4.972656 2.386719 7.003906 4.023438 7.003906 L 11.972656 7.003906 C 13.441406 7.003906 15 4.972656 15 4.972656 L 15 4.027344 C 15 2.367188 13.632812 1 11.972656 1 Z M 4.023438 3 L 11.972656 3 C 12.558594 3 13 3.441406 13 4.027344 L 13 4.972656 C 13 5.558594 12.558594 6 11.972656 6 L 4.023438 6 C 3.4375 6 2.996094 5.558594 2.996094 4.972656 L 2.996094 4.027344 C 2.996094 3.441406 3.4375 3 4.023438 3 Z M 4.023438 3 "/>
<path style=" stroke:none;fill-rule:nonzero;fill:rgb(18.039216%,20.392157%,20.392157%);fill-opacity:1;" d="M 7 0.996094 L 9 0.996094 L 9 11.027344 L 7 10.039062 Z M 7 0.996094 "/>
</g>
</svg>
